Icons/com_dropbox_android.svg

<svg viewBox="0 0 48 48" xmlns:xlink="http://www.w3.org/1999/xlink">
 <defs>
  <linearGradient id="0">
   <stop stop-opacity="0"/>
   <stop offset="1"/>
  </linearGradient>
  <linearGradient xlink:href="#0" id="1" gradientUnits="userSpaceOnUse" gradientTransform="translate(4e-7,-48)" y1="47" x2="0" y2="1"/>
  <clipPath id="2">
   <g transform="translate(0,-1004.3622)">
    <rect rx="4" y="1005.36" x="1" height="46" width="46" fill="#1890d0"/>
   </g>
  </clipPath>
  <clipPath id="3">
   <g transform="translate(0,-1004.3622)">
    <rect rx="4" y="1005.36" x="1" height="46" width="46" fill="#1890d0"/>
   </g>
  </clipPath>
 </defs>
 <g>
  <g transform="translate(0,-1004.3622)">
   <path d="m 5,1006.3622 c -2.216,0 -4,1.784 -4,4 l 0,37.25 c 0,2.216 1.784,4 4,4 l 38,0 c 2.216,0 4,-1.784 4,-4 l 0,-37.25 c 0,-2.216 -1.784,-4 -4,-4 l -38,0 z m -4,41.5 0,0.5 c 0,2.216 1.784,4 4,4 l 38,0 c 2.216,0 4,-1.784 4,-4 l 0,-0.5 c 0,2.216 -1.784,4 -4,4 l -38,0 c -2.216,0 -4,-1.784 -4,-4 z" opacity="0.02"/>
   <path d="m 1,1047.6122 0,0.25 c 0,2.216 1.784,4 4,4 l 38,0 c 2.216,0 4,-1.784 4,-4 l 0,-0.25 c 0,2.216 -1.784,4 -4,4 l -38,0 c -2.216,0 -4,-1.784 -4,-4 z" opacity="0.05"/>
   <rect width="46" height="46" x="1" y="1005.61" rx="4" opacity="0.1"/>
  </g>
 </g>
 <g>
  <g transform="translate(0,-1004.3622)">
   <rect rx="4" y="1005.36" x="1" height="46" width="46" fill="#1b77bf"/>
  </g>
 </g>
 <g>
  <rect transform="scale(1,-1)" width="46" height="46" x="1" y="-46.998" rx="4" opacity="0.1" fill="url(#1)"/>
 </g>
 <g>
  <g clip-path="url(#2)">
   <g opacity="0.1">
    <g>
     <path d="M 24.5 16.792969 L 17 21.269531 L 17 31.53125 L 24.5 27.023438 L 32 31.53125 L 32 21.269531 Z M 24.5 16.792969 "/>
     <path d="M 32 31.519531 L 32 21.28125 L 24.5 16.800781 L 24.5 27.039062 Z M 32 31.519531 "/>
     <path d="M 17 21.28125 L 17 31.53125 L 24.5 36 L 32 31.53125 L 32 21.28125 L 24.5 25.75 Z M 17 21.28125 "/>
     <path d="M 32 21.28125 L 32 31.519531 L 24.5 36 L 24.5 25.761719 Z M 32 21.28125 "/>
     <path d="M 17 21.28125 L 12 25.441406 L 19.5 30.238281 L 24.5 25.761719 Z M 17 21.28125 "/>
     <path d="M 32 21.28125 L 37 25.441406 L 29.5 30.238281 L 24.5 25.761719 Z M 32 21.28125 "/>
     <path d="M 12 16.800781 L 17 21.28125 L 24.5 16.800781 L 19.1875 12 Z M 12 16.800781 "/>
     <path d="M 37 16.800781 L 32 21.28125 L 24.5 16.800781 L 29.8125 12 Z M 37 16.800781 "/>
    </g>
   </g>
  </g>
 </g>
 <g>
  <g clip-path="url(#3)">
   <g transform="translate(0,-1)">
    <g>
     <path d="M 24.5 16.792969 L 17 21.269531 L 17 31.53125 L 24.5 27.023438 L 32 31.53125 L 32 21.269531 Z M 24.5 16.792969 " fill="#e7f4ff"/>
     <path d="M 32 31.519531 L 32 21.28125 L 24.5 16.800781 L 24.5 27.039062 Z M 32 31.519531 " fill="#d0ebff"/>
     <path d="M 17 21.28125 L 17 31.53125 L 24.5 36 L 32 31.53125 L 32 21.28125 L 24.5 25.75 Z M 17 21.28125 " fill="#61abea"/>
     <path d="M 32 21.28125 L 32 31.519531 L 24.5 36 L 24.5 25.761719 Z M 32 21.28125 " fill="#68b2ee"/>
     <path d="M 17 21.28125 L 12 25.441406 L 19.5 30.238281 L 24.5 25.761719 Z M 17 21.28125 " fill="#8cc5f4"/>
     <path d="M 32 21.28125 L 37 25.441406 L 29.5 30.238281 L 24.5 25.761719 Z M 32 21.28125 " fill="#8cc5f4"/>
     <path d="M 12 16.800781 L 17 21.28125 L 24.5 16.800781 L 19.1875 12 Z M 12 16.800781 " fill="#8cc5f4"/>
     <path d="M 37 16.800781 L 32 21.28125 L 24.5 16.800781 L 29.8125 12 Z M 37 16.800781 " fill="#8cc5f4"/>
    </g>
   </g>
  </g>
 </g>
 <g>
  <g transform="translate(0,-1004.3622)">
   <path d="m 1,1043.3622 0,4 c 0,2.216 1.784,4 4,4 l 38,0 c 2.216,0 4,-1.784 4,-4 l 0,-4 c 0,2.216 -1.784,4 -4,4 l -38,0 c -2.216,0 -4,-1.784 -4,-4 z" opacity="0.1"/>
  </g>
 </g>
</svg>

<svg viewBox="0 0 48 48"><defs><linearGradient id="linearGradient3764" x1="1" x2="47" gradientUnits="userSpaceOnUse" gradientTransform="translate(-48.000001,0.00221467)"><stop stop-color="#186dae" stop-opacity="1"/><stop offset="1" stop-color="#1b77bf" stop-opacity="1"/></linearGradient><clipPath id="clipPath-155667860"><g transform="translate(0,-1004.3622)"><rect rx="4" y="1005.36" x="1" height="46" width="46" fill="#1890d0"/></g></clipPath><clipPath id="clipPath-169282281"><g transform="translate(0,-1004.3622)"><rect rx="4" y="1005.36" x="1" height="46" width="46" fill="#1890d0"/></g></clipPath></defs><g><path d="m 1 43 l 0 0.25 c 0 2.216 1.784 4 4 4 l 38 0 c 2.216 0 4 -1.784 4 -4 l 0 -0.25 c 0 2.216 -1.784 4 -4 4 l -38 0 c -2.216 0 -4 -1.784 -4 -4 z m 0 0.5 l 0 0.5 c 0 2.216 1.784 4 4 4 l 38 0 c 2.216 0 4 -1.784 4 -4 l 0 -0.5 c 0 2.216 -1.784 4 -4 4 l -38 0 c -2.216 0 -4 -1.784 -4 -4 z" opacity="0.02"/><path d="m 1 43.25 l 0 0.25 c 0 2.216 1.784 4 4 4 l 38 0 c 2.216 0 4 -1.784 4 -4 l 0 -0.25 c 0 2.216 -1.784 4 -4 4 l -38 0 c -2.216 0 -4 -1.784 -4 -4 z" opacity="0.05"/><path d="m 1 43 l 0 0.25 c 0 2.216 1.784 4 4 4 l 38 0 c 2.216 0 4 -1.784 4 -4 l 0 -0.25 c 0 2.216 -1.784 4 -4 4 l -38 0 c -2.216 0 -4 -1.784 -4 -4 z" opacity="0.1"/></g><g><rect width="46" height="46" x="-47" y="1" rx="4" transform="matrix(0,-1,1,0,0,0)" fill="url(#linearGradient3764)" fill-opacity="1"/></g><g><g clip-path="url(#clipPath-155667860)"><g opacity="0.1"><!-- color: #1b77bf --><g><path d="m 24.5 16.793 l -7.5 4.477 l 0 10.262 l 7.5 -4.508 l 7.5 4.508 l 0 -10.262 m -7.5 -4.477" fill="#000"/><path d="m 32 31.52 l 0 -10.238 l -7.5 -4.48 l 0 10.238 m 7.5 4.48" fill="#000"/><path d="m 17 21.281 l 0 10.25 l 7.5 4.469 l 7.5 -4.469 l 0 -10.25 l -7.5 4.469 m -7.5 -4.469" fill="#000"/><path d="m 32 21.281 l 0 10.238 l -7.5 4.48 l 0 -10.238 m 7.5 -4.48" fill="#000"/><path d="m 17 21.281 l -5 4.16 l 7.5 4.797 l 5 -4.477 m -7.5 -4.48" fill="#000"/><path d="m 32 21.281 l 5 4.16 l -7.5 4.797 l -5 -4.477 m 7.5 -4.48" fill="#000"/><path d="m 12 16.801 l 5 4.48 l 7.5 -4.48 l -5.313 -4.801 m -7.188 4.801" fill="#000"/><path d="m 37 16.801 l -5 4.48 l -7.5 -4.48 l 5.313 -4.801 m 7.188 4.801" fill="#000"/></g></g></g></g><g><g clip-path="url(#clipPath-169282281)"><g transform="translate(0,-1)"><!-- color: #1b77bf --><g><path d="m 24.5 16.793 l -7.5 4.477 l 0 10.262 l 7.5 -4.508 l 7.5 4.508 l 0 -10.262 m -7.5 -4.477" fill="#e7f4ff"/><path d="m 32 31.52 l 0 -10.238 l -7.5 -4.48 l 0 10.238 m 7.5 4.48" fill="#d0ebff"/><path d="m 17 21.281 l 0 10.25 l 7.5 4.469 l 7.5 -4.469 l 0 -10.25 l -7.5 4.469 m -7.5 -4.469" fill="#61abea"/><path d="m 32 21.281 l 0 10.238 l -7.5 4.48 l 0 -10.238 m 7.5 -4.48" fill="#68b2ee"/><path d="m 17 21.281 l -5 4.16 l 7.5 4.797 l 5 -4.477 m -7.5 -4.48" fill="#8cc5f4"/><path d="m 32 21.281 l 5 4.16 l -7.5 4.797 l -5 -4.477 m 7.5 -4.48" fill="#8cc5f4"/><path d="m 12 16.801 l 5 4.48 l 7.5 -4.48 l -5.313 -4.801 m -7.188 4.801" fill="#8cc5f4"/><path d="m 37 16.801 l -5 4.48 l -7.5 -4.48 l 5.313 -4.801 m 7.188 4.801" fill="#8cc5f4"/></g></g></g></g><g><g transform="translate(0,-1004.3622)"><path d="m 1 1043.36 0 4 c 0 2.216 1.784 4 4 4 l 38 0 c 2.216 0 4 -1.784 4 -4 l 0 -4 c 0 2.216 -1.784 4 -4 4 l -38 0 c -2.216 0 -4 -1.784 -4 -4 z" opacity="0.1"/></g></g></svg>
